!!!SOCIAL_FUNCTION:	songs connected with ceremonies
!!!PDT:	1929
!!!OTL: No_113_The_Songs_Are_Beginning.krn
!!!REG: Southwest
!!!LANG: Non-Tone
!!!LING_GROUP: Uto-Aztecan
**kern
*staff1
*clefF4
*k[b-e-a-d-]
*M3/4
4E-\
=1
4B-\
8.B-\L
16B-\Jk
8.B-\L
16F\Jk
=2!|:
*M2/4
4A-\
4A-\
=3
8.A-\L
16F\Jk
8F\L
8F\J
=4
4E-\
8C/
8r
=5
2E-\
=6
8BB-/
8r
8F\L
8F\J
=7
8A-\L
8A-\J
4A-\
=8
4F\
8E-\
8r
=9||
*M3/4
4F\
4A-\
8F\L
8F\J
=10||
*M2/4
8.E-/L
16C/Jk
8E-\L
8E-\J
=11
4E-\
8BB-/
8r
=12||
*M3/4
8.F\L
16F\Jk
4F\
8.E-/L
16C/Jk
=13||
*M2/4
2E-\
=14
8BB-/
8r
8E-\L
8E-\J
=15
2E-\
==:|!
*-
